X: 41300
T: Tune For Dad
R: reel
M: 4/4
K: Gmajor
B/d/|:gfdB e4|edB/A/G A2 z2|BB/A/GA B d3|d2 e/d/A/B/ d z Bd|
gfag/f/ e4|ed B/A/G A z AB|AGBD E4|1 E7 B/d/:|2 E7 A/B/||
|:cBGE A4|A7 A/B/|cBAG B d3|d2 e/d/A/B/ d z AB|
cBGE A4|A2 A/G/A/B/ A z AB|AGBD E4|1 E7 A/B/:|2 E7 B/d/||

